X: 3
T:Applejack
C:Bob McQuillen
R:Reel
S:https://trillian.mit.edu/~jc/music/abc/mirror/kirby98.fsnet.co.uk/ap/Applejacks_Reel_1.abc
M:4/4
L:1/4
K:D
A,/2B,/2|:"D"DE/2F/2 DE/2F/2|"D"D/2E/2F/2A/2"G"Bd|"D"DE/2F/2D/2E/2 F/2A/2|"G"B/2d/2A/2F/2 "A7"E/2G/2F/2E/2|
|"D"DE/2F/2DE/2F/2|"D"D/2E/2F/2A/2 "G"Bd|"D"d/2e/2f/2d/2 "Em"e/2d/2B/2d/2|1"A7"A/2F/2E/2F/2 "D"D A,/2B,/2:|2 "A7"A/2F/2E/2F/2 "D"D A/B/|]
|:"D"d/2e/2d/2B/2 "A7"Ad/2e/2|"D"f/2d/2e/2f/2 "G"e/2d/2B/2d/2|"D"d/2e/2d/2B/2 "A7"Ad/2B/2|"D"A/2d/2A/2F/2 "A7"EA/2B/2|
"D"d/2e/2d/2B/2 "A7"Ad/2e/2|"D"f/2d/2e/2f/2 "Em"e/2d/2B/2d/2|"G"d/2e/2d/2B/2 "D"A/2d/2A/2F/2|1"A7"E/2D/2E/2F/2 "D"D A/2B/2:|2 1"A7"E/2D/2E/2F/2 "D"D2|]

